static/assets/images/tokens/usdt+.svg

<svg width="256" height="256" viewBox="0 0 256 256" fill="none" xmlns="http://www.w3.org/2000/svg">
<path d="M128 256C198.692 256 256 198.692 256 128C256 57.3075 198.692 0 128 0C57.3076 0 0 57.3075 0 128C0 198.692 57.3076 256 128 256Z" fill="#26A17B"/>
<path d="M194.947 192.147C138.19 203.612 82.7397 166.827 71.2045 110.4C65.4346 83.058 71.3601 55.7496 85.4581 33.6969C42.7123 53.3424 17.4324 100.363 27.2364 148.646C38.7715 205.073 94.2217 241.858 150.979 230.393C180.235 224.662 203.677 207.287 218.947 184.075C211.334 187.543 203.724 190.427 194.947 192.147Z" fill="url(#paint0_linear_4193_3610)"/>
<path fill-rule="evenodd" clip-rule="evenodd" d="M228.547 176.537L235.518 181.489C237.089 182.604 236.926 184.985 235.217 185.876L212.649 197.634C210.857 198.567 208.736 197.17 208.889 195.154L210.875 168.778C211.026 166.778 213.302 165.709 214.938 166.87L221.187 171.31C237.146 135.044 231.248 91.2145 202.687 60.23C164.52 18.8235 100.214 15.9025 58.4585 53.4485C57.9292 53.9244 57.1104 53.8957 56.6281 53.3725L52.3724 48.7557C51.89 48.2323 51.9271 47.4126 52.4558 46.9362C97.8079 6.07548 167.717 9.22487 209.199 54.2277C240.667 88.3665 246.795 136.844 228.547 176.537Z" fill="white"/>
<path fill-rule="evenodd" clip-rule="evenodd" d="M27.2311 81.0203L20.26 76.0688C18.6894 74.9534 18.8532 72.5721 20.5616 71.6821L43.1295 59.924C44.9216 58.9902 47.042 60.3882 46.8902 62.4031L44.9034 88.7798C44.7527 90.7797 42.4761 91.8488 40.8411 90.6874L34.5903 86.2476C18.6325 122.513 24.53 166.343 53.0906 197.328C91.2579 238.734 155.565 241.655 197.319 204.11C197.85 203.634 198.669 203.662 199.15 204.185L203.405 208.802C203.888 209.325 203.851 210.146 203.322 210.621C157.971 251.482 88.0611 248.333 46.5788 203.329C15.1106 169.191 8.98312 120.714 27.2311 81.0203Z" fill="white"/>
<path fill-rule="evenodd" clip-rule="evenodd" d="M180.688 74.1155H74.5793V100.053H113.486V138.37H140.603V100.053H180.688V74.1155ZM113.486 202.626V148.651H90.0005V143.511H164.536V148.651H140.603V202.626H113.486Z" fill="white"/>
<defs>
<linearGradient id="paint0_linear_4193_3610" x1="-7.36313" y1="284.996" x2="144.406" y2="104.21" gradientUnits="userSpaceOnUse">
<stop offset="0.0729167" stop-color="white" stop-opacity="0.81"/>
<stop offset="0.4775" stop-color="white" stop-opacity="0.48"/>
<stop offset="1" stop-color="white" stop-opacity="0"/>
</linearGradient>
</defs>
</svg>

<svg xmlns="http://www.w3.org/2000/svg" fill="none" viewBox="0 0 256 256"><path fill="#26A17B" d="M128 256c70.692 0 128-57.308 128-128S198.692 0 128 0 0 57.308 0 128s57.308 128 128 128"/><path fill="url(#paint0_linear_4193_3610)" d="M194.947 192.147C138.19 203.612 82.74 166.827 71.205 110.4c-5.77-27.342.155-54.65 14.253-76.703-42.746 19.645-68.026 66.666-58.222 114.949 11.536 56.427 66.986 93.212 123.743 81.747 29.256-5.731 52.698-23.106 67.968-46.318-7.613 3.468-15.223 6.352-24 8.072"/><path fill="#fff" fill-rule="evenodd" d="m228.547 176.537 6.971 4.952c1.571 1.115 1.408 3.496-.301 4.387l-22.568 11.758c-1.792.933-3.913-.464-3.76-2.48l1.986-26.376c.151-2 2.427-3.069 4.063-1.908l6.249 4.44c15.959-36.266 10.061-80.095-18.5-111.08-38.167-41.406-102.473-44.327-144.228-6.781a1.306 1.306 0 0 1-1.83-.076l-4.257-4.617a1.28 1.28 0 0 1 .084-1.82c45.352-40.86 115.261-37.711 156.743 7.292 31.468 34.139 37.596 82.616 19.348 122.309M27.231 81.02l-6.971-4.95c-1.57-1.116-1.407-3.497.302-4.387L43.13 59.924c1.792-.934 3.912.464 3.76 2.48L44.903 88.78c-.15 2-2.427 3.069-4.062 1.907l-6.25-4.44c-15.958 36.266-10.061 80.096 18.5 111.081 38.167 41.406 102.474 44.327 144.228 6.782a1.307 1.307 0 0 1 1.831.075l4.255 4.617a1.28 1.28 0 0 1-.083 1.819c-45.351 40.861-115.26 37.712-156.743-7.292C15.11 169.191 8.983 120.714 27.23 81.02" clip-rule="evenodd"/><path fill="#fff" fill-rule="evenodd" d="M180.688 74.116H74.579v25.937h38.907v38.317h27.117v-38.317h40.085zm-67.202 128.51v-53.975H90.001v-5.14h74.535v5.14h-23.933v53.975z" clip-rule="evenodd"/><defs><linearGradient id="paint0_linear_4193_3610" x1="-7.363" x2="144.406" y1="284.996" y2="104.21" gradientUnits="userSpaceOnUse"><stop offset=".073" stop-color="#fff" stop-opacity=".81"/><stop offset=".477" stop-color="#fff" stop-opacity=".48"/><stop offset="1" stop-color="#fff" stop-opacity="0"/></linearGradient></defs></svg>
